icons/svg/32x32/mail/outline.svg

<svg xmlns="http://www.w3.org/2000/svg" width="32" height="32" viewBox="0 0 32 32">
  <path fill-rule="evenodd" d="M27.0215,22.5059 L21.9915,16.7569 L27.7925,12.4049 C27.9275,13.4279 28.0005,14.6049 28.0005,15.9999 C28.0005,19.0179 27.6915,21.0849 27.0215,22.5059 M6.2095,24.1369 L11.6135,17.9599 L16.0005,21.2499 L20.3865,17.9599 L25.7915,24.1369 C24.1925,25.4389 21.2545,25.9999 16.0005,25.9999 C10.7455,25.9999 7.8075,25.4389 6.2095,24.1369 M4.2075,12.4049 L10.0085,16.7569 L4.9785,22.5059 C4.3085,21.0849 4.0005,19.0179 4.0005,15.9999 C4.0005,14.6049 4.0725,13.4279 4.2075,12.4049 M6.1155,7.9299 C7.6935,6.5769 10.6495,5.9999 16.0005,5.9999 C21.3505,5.9999 24.3065,6.5769 25.8845,7.9299 C26.5165,8.4719 26.9855,9.2369 27.3255,10.2569 L16.0005,18.7499 L4.6745,10.2569 C5.0145,9.2369 5.4835,8.4719 6.1155,7.9299 M27.1865,6.4119 C25.0825,4.6079 21.5825,3.9999 16.0005,3.9999 C10.4175,3.9999 6.9175,4.6079 4.8135,6.4119 C2.7095,8.2159 2.0005,11.2159 2.0005,15.9999 C2.0005,20.7839 2.7095,23.7839 4.8135,25.5879 C6.9175,27.3929 10.4175,27.9999 16.0005,27.9999 C21.5825,27.9999 25.0825,27.3929 27.1865,25.5879 C29.2915,23.7839 30.0005,20.7839 30.0005,15.9999 C30.0005,11.2159 29.2915,8.2159 27.1865,6.4119"/>
</svg>

<svg width="32" height="32" fill="none" xmlns="http://www.w3.org/2000/svg">
  <path fill-rule="evenodd" clip-rule="evenodd" d="M27.021 22.506l-5.03-5.75 5.802-4.351c.134 1.023.207 2.2.207 3.595 0 3.018-.308 5.085-.979 6.506zM6.21 24.136l5.405-6.176L16 21.25l4.387-3.29 5.404 6.177C24.192 25.439 21.255 26 16.002 26c-5.256 0-8.194-.561-9.792-1.863zm-2.003-11.73l5.801 4.352-5.03 5.749C4.308 21.085 4 19.018 4 16c0-1.395.072-2.572.207-3.595zM6.115 7.93C7.693 6.577 10.65 6 16 6s8.306.577 9.884 1.93c.633.542 1.101 1.307 1.442 2.327L16 18.75 4.674 10.257c.34-1.02.81-1.785 1.441-2.327zm21.071-1.518C25.082 4.608 21.582 4 16 4s-9.083.608-11.187 2.412C2.71 8.216 2 11.216 2 16c0 4.784.71 7.784 2.813 9.588C6.917 27.393 10.418 28 16.001 28c5.581 0 9.081-.607 11.185-2.412C29.291 23.784 30 20.784 30 16c0-4.784-.709-7.784-2.814-9.588z" fill="#000"/>
</svg>
